22x22/apps/pspp.svg

<svg xmlns="http://www.w3.org/2000/svg" width="22" height="22" version="1">
 <circle style="opacity:0.2" cx="10" cy="11.5" r="9"/>
 <circle style="fill:#ad3f36" cx="10" cy="11" r="9"/>
 <path style="opacity:0.1;fill:#f4f4f7" d="M 10,1.9999996 A 9.0000002,9.0000002 0 0 0 1,11 9.0000002,9.0000002 0 0 0 1.0107422,11.292969 9.0000002,9.0000002 0 0 1 10,2.4999996 9.0000002,9.0000002 0 0 1 18.989258,11.207031 9.0000002,9.0000002 0 0 0 19,11 9.0000002,9.0000002 0 0 0 10,1.9999996 Z"/>
 <path style="opacity:0.2" d="M 17.778175,18.75 10,10.971824 17.778175,3.1936499 c 4.295767,4.2957669 4.295767,11.2605831 0,15.5563501 z"/>
 <path style="fill:#3b8ae0" d="M 17.778175,18.25 10,10.471824 17.778175,2.6936499 c 4.295767,4.2957669 4.295767,11.2605831 0,15.5563501 z"/>
 <path style="opacity:0.2" d="M 10,1.4999996 10,11 16.717774,4.2822261 C 14.998612,2.5630643 12.623353,1.4999996 10,1.4999996 Z"/>
 <path style="fill:#7dc564" d="M 10,0.9999996 10,10.5 16.717774,3.7822261 C 14.998612,2.0630643 12.623353,0.9999996 10,0.9999996 Z"/>
 <path style="opacity:0.1;fill:#f4f4f7" d="m 10,1 0,0.5 c 2.495987,0 4.761636,0.9688009 6.457031,2.5429688 L 16.71875,3.78125 C 14.999588,2.0620882 12.623353,1 10,1 Z"/>
</svg>

<svg xmlns="http://www.w3.org/2000/svg" width="22" height="22" version="1"><circle style="opacity:.2" cx="10" cy="11.5" r="9"/><circle style="fill:#ad3f36" cx="10" cy="11" r="9"/><path style="opacity:.1;fill:#f4f4f7" d="M10 2a9 9 0 0 0-9 9 9 9 0 0 0 .01.293A9 9 0 0 1 10 2.5a9 9 0 0 1 8.99 8.707A9 9 0 0 0 19 11a9 9 0 0 0-9-9z"/><path style="opacity:.2" d="M17.778 18.75 10 10.972l7.778-7.778c4.296 4.295 4.296 11.26 0 15.556z"/><path style="fill:#3b8ae0" d="M17.778 18.25 10 10.472l7.778-7.778c4.296 4.295 4.296 11.26 0 15.556z"/><path style="opacity:.2" d="M10 1.5V11l6.718-6.718A9.47 9.47 0 0 0 10 1.5z"/><path style="fill:#7dc564" d="M10 1v9.5l6.718-6.718A9.47 9.47 0 0 0 10 1z"/><path style="opacity:.1;fill:#f4f4f7" d="M10 1v.5c2.496 0 4.762.969 6.457 2.543l.262-.262A9.472 9.472 0 0 0 10 1z"/></svg>
